icons/media/stop-24.svg

<svg width="24" height="24" viewBox="0 0 24 24" fill="none" xmlns="http://www.w3.org/2000/svg">
<path fill-rule="evenodd" clip-rule="evenodd" d="M5.75 4C4.7835 4 4 4.7835 4 5.75V18.25C4 19.2165 4.7835 20 5.75 20H18.25C19.2165 20 20 19.2165 20 18.25V5.75C20 4.7835 19.2165 4 18.25 4H5.75ZM5.5 5.75C5.5 5.61193 5.61193 5.5 5.75 5.5H18.25C18.3881 5.5 18.5 5.61193 18.5 5.75V18.25C18.5 18.3881 18.3881 18.5 18.25 18.5H5.75C5.61193 18.5 5.5 18.3881 5.5 18.25V5.75Z" fill="black"/>
</svg>

<svg xmlns="http://www.w3.org/2000/svg" width="24" height="24"><path fill-rule="evenodd" d="M5.75 4A1.75 1.75 0 004 5.75v12.5c0 .966.784 1.75 1.75 1.75h12.5A1.75 1.75 0 0020 18.25V5.75A1.75 1.75 0 0018.25 4H5.75zM5.5 5.75a.25.25 0 01.25-.25h12.5a.25.25 0 01.25.25v12.5a.25.25 0 01-.25.25H5.75a.25.25 0 01-.25-.25V5.75z"/></svg>
